assets/Oil drum/Flat/oil_drum_flat.svg

<svg xmlns="http://www.w3.org/2000/svg" width="32" height="32" fill="none"><path fill="#00A6ED" d="M25 6H7v22h18V6Z"/><path fill="#212121" d="M23.02 2h-3.03c-.55 0-.99.44-.99.98V4h5V2.98c0-.54-.44-.98-.98-.98Z"/><path fill="#26EAFC" d="M20 6h1v22h-1V6Zm2 0h2v22h-2V6Z"/><path fill="#0074BA" d="M7 6h18c.55 0 1-.45 1-1s-.45-1-1-1H7c-.55 0-1 .45-1 1s.45 1 1 1Zm0 24h18c.55 0 1-.45 1-1s-.45-1-1-1H7c-.55 0-1 .45-1 1s.45 1 1 1Zm18-16H7c-.55 0-1-.45-1-1s.45-1 1-1h18c.55 0 1 .45 1 1s-.45 1-1 1ZM7 22h18c.55 0 1-.45 1-1s-.45-1-1-1H7c-.55 0-1 .45-1 1s.45 1 1 1Z"/></svg>

<svg width="32" height="32" viewBox="0 0 32 32" fill="none" xmlns="http://www.w3.org/2000/svg">
<path d="M25 6H7V28H25V6Z" fill="#00A6ED"/>
<path d="M23.02 2H19.99C19.44 2 19 2.44 19 2.98V4H24V2.98C24 2.44 23.56 2 23.02 2Z" fill="#212121"/>
<path d="M20 6H21V28H20V6ZM22 6H24V28H22V6Z" fill="#26EAFC"/>
<path d="M7 6H25C25.55 6 26 5.55 26 5C26 4.45 25.55 4 25 4H7C6.45 4 6 4.45 6 5C6 5.55 6.45 6 7 6ZM7 30H25C25.55 30 26 29.55 26 29C26 28.45 25.55 28 25 28H7C6.45 28 6 28.45 6 29C6 29.55 6.45 30 7 30ZM25 14H7C6.45 14 6 13.55 6 13C6 12.45 6.45 12 7 12H25C25.55 12 26 12.45 26 13C26 13.55 25.55 14 25 14ZM7 22H25C25.55 22 26 21.55 26 21C26 20.45 25.55 20 25 20H7C6.45 20 6 20.45 6 21C6 21.55 6.45 22 7 22Z" fill="#0074BA"/>
</svg>
